packages/foundations/assets/icons/functional/images/maps/navigation_straight_28.svg

<svg width="28" height="28" viewBox="0 0 28 28" fill="none" xmlns="http://www.w3.org/2000/svg">
<g clip-path="url(#clip0_2213_5361)">
<path fill-rule="evenodd" clip-rule="evenodd" d="M14 3.5C14.203 3.5 14.4351 3.58706 14.6091 3.76128L20.739 9.89459C20.884 10.0397 21 10.2719 21 10.5041C21 10.9976 20.594 11.375 20.1299 11.375C19.8978 11.375 19.6658 11.2879 19.4917 11.1137L14.875 6.49425L14.8796 23.6247C14.8797 24.1079 14.4881 24.5 14.0049 24.5C13.5216 24.5 13.1297 24.1086 13.1296 23.6253L13.125 6.49425L8.50828 11.1137C8.33423 11.2879 8.12151 11.375 7.87012 11.375C7.40603 11.375 7 10.9976 7 10.5041C7 10.2719 7.08699 10.0397 7.26098 9.89459L13.4581 3.69195C13.6022 3.56396 13.8011 3.5 14 3.5Z" fill="#1A1C1F"/>
</g>
<defs>
<clipPath id="clip0_2213_5361">
<rect width="28" height="28" fill="white"/>
</clipPath>
</defs>
</svg>

<svg xmlns="http://www.w3.org/2000/svg" width="28" height="28" fill="none"><g clip-path="url(#a)"><path fill="#1A1C1F" fill-rule="evenodd" d="M14 3.5c.203 0 .435.087.61.261l6.129 6.134a.9.9 0 0 1 .261.61c0 .493-.406.87-.87.87a.9.9 0 0 1-.638-.261l-4.617-4.62.005 17.13a.875.875 0 1 1-1.75.001l-.005-17.13-4.617 4.619a.87.87 0 0 1-.638.261.873.873 0 0 1-.87-.87.79.79 0 0 1 .261-.61l6.197-6.203A.82.82 0 0 1 14 3.5" clip-rule="evenodd"/></g><defs><clipPath id="a"><path fill="#fff" d="M0 0h28v28H0z"/></clipPath></defs></svg>
